svg/050-white.svg

<svg height="288pt" stroke-linejoin="round" viewBox="0 0 432 288" width="432pt" xmlns="http://www.w3.org/2000/svg"><g stroke-linejoin="round"><path d="m0 288h432v-288h-432z" fill="none"/><path d="m221.4 242.116364c26.20298 0 51.359558-10.420196 69.887863-28.948501s28.948501-43.684883 28.948501-69.887863-10.420196-51.359558-28.948501-69.887863-43.684883-28.948501-69.887863-28.948501v98.836364z" fill="#fff"/></g></svg>

<?xml version="1.0" encoding="utf-8" standalone="no"?>
<!DOCTYPE svg PUBLIC "-//W3C//DTD SVG 1.1//EN"
  "http://www.w3.org/Graphics/SVG/1.1/DTD/svg11.dtd">
<!-- Created with matplotlib (http://matplotlib.org/) -->
<svg height="288pt" version="1.1" viewBox="0 0 432 288" width="432pt" xmlns="http://www.w3.org/2000/svg" xmlns:xlink="http://www.w3.org/1999/xlink">
 <defs>
  <style type="text/css">
*{stroke-linecap:butt;stroke-linejoin:round;}
  </style>
 </defs>
 <g id="figure_1">
  <g id="patch_1">
   <path d="M 0 288 
L 432 288 
L 432 0 
L 0 0 
z
" style="fill:none;"/>
  </g>
  <g id="axes_1">
   <g id="patch_2">
    <path d="M 221.4 242.116364 
C 247.60298 242.116364 272.759558 231.696168 291.287863 213.167863 
C 309.816168 194.639558 320.236364 169.48298 320.236364 143.28 
C 320.236364 117.07702 309.816168 91.920442 291.287863 73.392137 
C 272.759558 54.863832 247.60298 44.443636 221.4 44.443636 
L 221.4 143.28 
L 221.4 242.116364 
z
" style="fill:#ffffff;"/>
   </g>
   <g id="patch_3">
    <path d="M 221.4 44.443636 
C 195.19702 44.443636 170.040442 54.863832 151.512137 73.392137 
C 132.983832 91.920442 122.563636 117.07702 122.563636 143.28 
C 122.563636 169.48298 132.983832 194.639558 151.512137 213.167863 
C 170.040442 231.696168 195.19702 242.116364 221.4 242.116364 
L 221.4 237.174545 
C 196.507169 237.174545 172.60842 227.27536 155.00653 209.67347 
C 137.40464 192.07158 127.505455 168.172831 127.505455 143.28 
C 127.505455 118.387169 137.40464 94.48842 155.00653 76.88653 
C 172.60842 59.28464 196.507169 49.385455 221.4 49.385455 
z
" style="fill:#ffffff;"/>
   </g>
   <g id="matplotlib.axis_1"/>
   <g id="matplotlib.axis_2"/>
  </g>
 </g>
</svg>
